X:10
T:The Glenora Reel
R:reel
C: John Campbell
D:John Campbell, Cape Breton Violin Music (1975-2006)
Z:Paul Stewart Cranford (P.S.C.), <http://www.cranfordpub.com>
L:1/8
M:C|
Q:333
K:Edor
d|efed B2 AB|defd g2 fd|efed B2 Ae|dBAF E2 E:|
|:e|BEGA B2 AB|defe dDDe|BEGA B2 AB|dBAF E2 E:|
